!!!OTL: 166. Freylekhs
!!!Genre:	Freylekhs
!!!Mode:	Major
!!!Listening/dance:	dance
!!!:	*g:
!!!One_Mode:	no
**kern
*thru
*I"P1
*clefG2
*k[f#]
*G:
*M2/4
*>A
!LO:TX:a:i:t=G-major
8dd
=1
16ddLL
16ddJ
8bJ
8aL
8gJ
=2
8a
(8qcc/
4b)
8dd
=3
16ddLL
16ccJ
8bJ
8aL
8bJ
*>A1
=4
16aLL
16aJJ
4g
*>A
!LO:TX:a:i:t=G-major
8dd
=1
16ddLL
16ddJ
8bJ
8aL
8gJ
=2
8a
(8qcc/
4b)
8dd
=3
16ddLL
16ccJ
8bJ
8aL
8bJ
*>A2
=5:|!
16aLL
16bJ
!LO:TX:b:Bi:t=Fine
8gJ
8r
*>B
8d
=6||
*k[b-e-]
!!!Begin-Modulation
*-
